_includes/icons/color-vip.svg

<svg fill="#666" height="50" viewBox="0 0 48 48" width="50" xmlns="http://www.w3.org/2000/svg"><path d="m38 43h-28c-2.199219 0-4-1.800781-4-4v-28c0-2.199219 1.800781-4 4-4h28c2.199219 0 4 1.800781 4 4v28c0 2.199219-1.800781 4-4 4z" fill="#880e4f"/><g fill="#ffd54f"><path d="m15.898438 28 2.101562-9.101562h2.800781l-3.601562 12.601562h-2.597656l-3.601563-12.601562h2.800781z"/><path d="m25.601563 31.5h-2.5v-12.601562h2.5z"/><path d="m31.199219 27.101563v4.398437h-2.5v-12.601562h4.300781c3.699219 0 4.101563 3.402343 4.101563 4.203125 0 1.199218-.5 4-4.101563 4zm0-2.203125h1.699219c1.300781 0 1.5-1.097657 1.5-1.898438 0-1.601562-.898438-2.101562-1.5-2.101562h-1.699219z"/></g></svg>

<svg xmlns="http://www.w3.org/2000/svg" viewBox="0 0 48 48" width="50" height="50" fill="#666"><path d="M 38 43 L 10 43 C 7.800781 43 6 41.199219 6 39 L 6 11 C 6 8.800781 7.800781 7 10 7 L 38 7 C 40.199219 7 42 8.800781 42 11 L 42 39 C 42 41.199219 40.199219 43 38 43 Z" fill="#880e4f"/><path d="M 15.898438 28 L 18 18.898438 L 20.800781 18.898438 L 17.199219 31.5 L 14.601563 31.5 L 11 18.898438 L 13.800781 18.898438 Z" fill="#ffd54f"/><path d="M 25.601563 31.5 L 23.101563 31.5 L 23.101563 18.898438 L 25.601563 18.898438 Z" fill="#ffd54f"/><path d="M 31.199219 27.101563 L 31.199219 31.5 L 28.699219 31.5 L 28.699219 18.898438 L 33 18.898438 C 36.699219 18.898438 37.101563 22.300781 37.101563 23.101563 C 37.101563 24.300781 36.601563 27.101563 33 27.101563 Z M 31.199219 24.898438 L 32.898438 24.898438 C 34.199219 24.898438 34.398438 23.800781 34.398438 23 C 34.398438 21.398438 33.5 20.898438 32.898438 20.898438 L 31.199219 20.898438 Z" fill="#ffd54f"/></svg>
